Origami/64x64/apps/glade.svg

<svg width="64" height="64" version="1.1" viewBox="0 0 64 64" xmlns="http://www.w3.org/2000/svg">
 <path d="m11 56v2c0 1.662 1.338 3 3 3h38c1.662 0 3-1.338 3-3v-2c0 1.662-1.338 3-3 3h-38c-1.662 0-3-1.338-3-3z" style="opacity:.2"/>
 <path d="m55 57v-50c0-1.662-1.338-3-3-3h-38c-1.662 0-3 1.338-3 3v50c0 1.662 1.338 3 3 3h38c1.662 0 3-1.338 3-3z" style="fill:#e4e4e4"/>
 <path d="m14 4c-1.662 0-3 1.338-3 3v1c0-1.662 1.338-3 3-3h38c1.662 0 3 1.338 3 3v-1c0-1.662-1.338-3-3-3h-38z" style="fill:#ffffff;opacity:.1"/>
 <path d="m5 9v44c0 4 4 4 4 4h52l-56-48zm10 21.742 18.964 16.258h-18.964v-16.258z" style="opacity:.2"/>
 <path d="m5 8v44c0 4 4 4 4 4h52l-56-48zm10 21.742 18.964 16.258h-18.964v-16.258z" style="fill:#689f38"/>
</svg>

<svg xmlns="http://www.w3.org/2000/svg" width="64" height="64" version="1.1" viewBox="0 0 64 64">
 <path style="opacity:0.2" d="m 11,56 0,2 c 0,1.662 1.338,3 3,3 l 38,0 c 1.662,0 3,-1.338 3,-3 l 0,-2 c 0,1.662 -1.338,3 -3,3 l -38,0 c -1.662,0 -3,-1.338 -3,-3 z"/>
 <path style="fill:#cccccc" d="M 55,57 55,7 C 55,5.338 53.662,4 52,4 L 14,4 c -1.662,0 -3,1.338 -3,3 l 0,50 c 0,1.662 1.338,3 3,3 l 38,0 c 1.662,0 3,-1.338 3,-3 z"/>
 <path style="opacity:0.1;fill:#ffffff" d="m 14,4 c -1.662,0 -3,1.338 -3,3 l 0,1 c 0,-1.662 1.338,-3 3,-3 l 38,0 c 1.662,0 3,1.338 3,3 L 55,7 C 55,5.338 53.662,4 52,4 L 14,4 Z"/>
 <path style="opacity:0.2" d="m 5,9 0,44 c 0,4 4,4 4,4 L 61,57 5,9 Z M 15,30.742 33.964,47 15,47 15,30.742 Z"/>
 <path style="fill:#618a33" d="m 5,8 0,44 c 0,4 4,4 4,4 L 61,56 5,8 Z M 15,29.742 33.964,46 15,46 15,29.742 Z"/>
</svg>
